svg/color/link.svg

<svg width="64" height="65" viewBox="0 0 64 65" fill="none" xmlns="http://www.w3.org/2000/svg">
<rect y="0.303711" width="64" height="64" rx="32" fill="white"/>
<rect x="0.5" y="0.803711" width="63" height="63" rx="31.5" stroke="#070B14" stroke-opacity="0.15"/>
<path d="M32.0097 8.30371L27.6061 10.8358L15.6061 17.7716L11.2024 20.3037V44.3037L15.6061 46.8358L27.7162 53.7716L32.1198 56.3037L36.5235 53.7716L48.4134 46.8358L52.8171 44.3037V20.3037L48.4134 17.7716L36.4134 10.8358L32.0097 8.30371ZM20.0097 39.2395V25.3679L32.0097 18.4322L44.0097 25.3679V39.2395L32.0097 46.1753L20.0097 39.2395Z" fill="#2A5ADA"/>
</svg>

<svg xmlns="http://www.w3.org/2000/svg" width="64" height="65" fill="none" viewBox="0 0 64 65"><rect width="64" height="64" y=".304" fill="#fff" rx="32"/><rect width="63" height="63" x=".5" y=".804" stroke="#070B14" stroke-opacity=".15" rx="31.5"/><path fill="#2A5ADA" d="m32.01 8.304-4.404 2.532-12 6.936-4.404 2.532v24l4.404 2.532 12.11 6.936 4.404 2.532 4.404-2.532 11.89-6.936 4.403-2.532v-24l-4.404-2.532-12-6.936zm-12 30.935V25.368l12-6.936 12 6.936V39.24l-12 6.935z"/></svg>
